assets/svg/306-K.svg

<svg xmlns="http://www.w3.org/2000/svg" xmlns:xlink="http://www.w3.org/1999/xlink" width="36.46" height="36.46"><defs><path id="a" d="M0 0h36.46v36.46H0z"/></defs><clipPath id="b"><use xlink:href="#a" overflow="visible"/></clipPath><path fill="none" stroke="#000" stroke-width=".43" d="m2.9 35.2 6-3.93m4.9.87-4.2-4.58m1.26-2.72 5.47-2.72m0-7.24-4 5.06m-6.69-1.4L10 22.3m-6.93 2.35-2.9-5.8m13.89 9.1 6.66 2.72M6.53 23.56l-1.28 6.18M9 12.93l-6.1 3.75m6.7-7.62 4.2 4.58m2.53-10.02-5.47 2.72M13.47 0l-1.14 1.44M5.64.03 10 3.8M3.07 6.15.17.35m20.55 11.81-6.66-2.72M6.53 5.06l-1.28 6.18m21.8 20.03-5.98 3.92m10.89-3.05-4.2-4.58M29 24.84l5.5-2.72m0-7.24-4.02 5.06m-6.68-1.4 4.35 3.77m-9.83-3.45 2.9 5.8m3.48-1.1-1.3 6.18m3.63-17.01-5.96 3.95m10.89-3.04-4.2-4.58m2.72-7.62L31.62 0M16.33 32.8l-2.9 3.66M34.5 32.8l-2.9 3.66M23.8.03l4.35 3.78M18.32.35l2.9 5.8m3.48-1.09-1.3 6.18m5.6-4.9 5.5-2.72M2.62 30.67 0 29.6m0-18.5 2.62 1.06M36.46 29.6l-4.06-1.65m0-18.51 4.06 1.66" clip-path="url(#b)"/></svg>

<?xml version="1.0"?>
<svg xmlns="http://www.w3.org/2000/svg" xmlns:xlink="http://www.w3.org/1999/xlink" width="36.46" height="36.461">
  <defs>
    <path id="a" d="M0 0h36.46v36.46H0z"/>
  </defs>
  <clipPath id="b">
    <use xlink:href="#a" overflow="visible"/>
  </clipPath>
  <path fill="none" stroke="#000" stroke-width=".43" d="M2.9 35.2l6-3.93M13.8 32.14l-4.2-4.58M10.86 24.84l5.47-2.72M16.33 14.88l-4 5.06M5.64 18.54L10 22.3M3.07 24.65l-2.9-5.8M14.06 27.95l6.66 2.72M6.53 23.56l-1.28 6.18M9 12.93l-6.1 3.75M9.6 9.06l4.2 4.58M16.33 3.62l-5.47 2.72M13.47 0l-1.14 1.44M5.64.03L10 3.8M3.07 6.15L.17.35M20.72 12.16l-6.66-2.72M6.53 5.06l-1.28 6.18M27.05 31.27l-5.98 3.92M31.96 32.14l-4.2-4.58M29 24.84l5.5-2.72M34.5 14.88l-4.02 5.06M23.8 18.54l4.35 3.77M18.32 18.86l2.9 5.8M24.7 23.56l-1.3 6.18M27.03 12.73l-5.96 3.95M31.96 13.64l-4.2-4.58M30.48 1.44L31.62 0M16.33 32.8l-2.9 3.66M34.5 32.8l-2.9 3.66M23.8.03l4.35 3.78M18.32.35l2.9 5.8M24.7 5.06l-1.3 6.18M29 6.34l5.5-2.72M2.62 30.67L0 29.6M0 11.1l2.62 1.06M36.46 29.6l-4.06-1.65M32.4 9.44l4.06 1.66" clip-path="url(#b)"/>
</svg>
